Assets/Cards/Backup.svg

<?xml version="1.0" encoding="UTF-8"?>
<svg xmlns="http://www.w3.org/2000/svg" xmlns:xlink="http://www.w3.org/1999/xlink" width="60px" height="60px" viewBox="0 0 60 60" version="1.1">
<g id="surface1">
<path style=" stroke:none;fill-rule:nonzero;fill:rgb(0%,0%,0%);fill-opacity:1;" d="M 53.625 1.21875 C 57.675781 5.070312 60.109375 7.855469 60.28125 13.59375 C 60.238281 18.285156 59.496094 21.320312 56.25 24.75 C 53.980469 26.519531 52.21875 27.59375 49.5 28.5 C 49.496094 28.980469 49.492188 29.460938 49.492188 29.957031 C 49.464844 32.144531 49.414062 34.328125 49.359375 36.515625 C 49.351562 37.648438 49.351562 37.648438 49.347656 38.804688 C 49.179688 44.410156 49.179688 44.410156 47.070312 47.300781 C 45.136719 48.652344 43.457031 49.625 41.25 50.4375 C 40.320312 50.792969 40.320312 50.792969 39.375 51.152344 C 29.207031 54.394531 14.933594 54.109375 5.25 49.5 C 2.710938 48.136719 1.625 47.4375 0 45 C -0.207031 43.472656 -0.207031 43.472656 -0.230469 41.707031 C -0.242188 41.042969 -0.253906 40.378906 -0.265625 39.695312 C -0.269531 38.980469 -0.273438 38.265625 -0.277344 37.527344 C -0.285156 36.792969 -0.292969 36.054688 -0.300781 35.296875 C -0.308594 33.734375 -0.316406 32.175781 -0.320312 30.617188 C -0.328125 28.234375 -0.363281 25.851562 -0.402344 23.46875 C -0.410156 21.953125 -0.414062 20.4375 -0.417969 18.921875 C -0.433594 18.207031 -0.449219 17.496094 -0.464844 16.761719 C -0.441406 13.304688 -0.398438 11.761719 1.785156 8.957031 C 3.675781 7.554688 5.296875 6.625 7.5 5.8125 C 8.117188 5.578125 8.738281 5.339844 9.375 5.097656 C 12.882812 3.980469 15.984375 3.675781 19.664062 3.78125 C 20.546875 3.796875 21.433594 3.8125 22.34375 3.832031 C 24.199219 3.871094 26.050781 3.917969 27.90625 3.976562 C 28.789062 3.988281 29.675781 4.003906 30.585938 4.015625 C 31.390625 4.035156 32.195312 4.058594 33.023438 4.078125 C 35.785156 3.671875 36.941406 2.578125 39 0.75 C 43.660156 -0.804688 49.167969 -0.851562 53.625 1.21875 Z M 37.886719 5.652344 C 36.972656 6.738281 36.105469 7.867188 35.25 9 C 35.992188 9 36.734375 9 37.5 9 C 36.695312 11.1875 36.167969 12.582031 34.5 14.25 C 32.382812 14.085938 31.117188 13.789062 29.4375 12.46875 C 28.5 11.25 28.5 11.25 27.75 9 C 29.234375 9.496094 30.71875 9.988281 32.25 10.5 C 32.496094 9.261719 32.746094 8.023438 33 6.75 C 25.359375 4.203125 13.800781 5.507812 6.703125 9.015625 C 5.027344 10.089844 3.65625 11.34375 2.25 12.75 C 2.144531 14.605469 2.144531 14.605469 3 16.5 C 9.203125 22.050781 19.179688 22.792969 27.152344 22.375 C 29.109375 22.199219 31.054688 22 33 21.75 C 33 20.761719 33 19.769531 33 18.75 C 33.742188 18.503906 34.484375 18.253906 35.25 18 C 35.503906 18.835938 35.503906 18.835938 35.765625 19.6875 C 37.140625 22.570312 39.171875 24.085938 42 25.5 C 46.210938 25.96875 50.042969 25.957031 53.644531 23.546875 C 56.503906 20.839844 57.589844 17.648438 58.125 13.828125 C 57.519531 9.671875 55.890625 7.058594 52.828125 4.21875 C 47.957031 0.96875 42.027344 1.371094 37.886719 5.652344 Z M 2.25 19.5 C 1.875 21.96875 1.875 21.96875 2.25 24.75 C 6.355469 29.382812 12.03125 30.691406 18 31.5 C 25.671875 31.90625 33.152344 31.8125 40.5 29.25 C 40.996094 28.753906 41.488281 28.261719 42 27.75 C 37.175781 23.832031 33.339844 23.589844 27.28125 23.90625 C 18.375 24.140625 10.359375 23.554688 2.25 19.5 Z M 2.25 28.5 C 1.957031 31.472656 1.90625 33.203125 3.515625 35.765625 C 7.808594 39.503906 14.796875 40.425781 20.25 41.25 C 20.25 41.746094 20.25 42.238281 20.25 42.75 C 13.820312 42.046875 8.117188 41.035156 2.25 38.25 C 1.875 40.71875 1.875 40.71875 2.25 43.5 C 6.355469 48.132812 12.03125 49.441406 18 50.25 C 27.101562 50.730469 37.632812 51.171875 45 45 C 46.808594 43.53125 46.808594 43.53125 46.59375 40.78125 C 46.5625 39.945312 46.53125 39.109375 46.5 38.25 C 45.015625 38.746094 43.53125 39.238281 42 39.75 C 42.824219 37.828125 43.480469 36.765625 45.09375 35.390625 C 46.78125 33.753906 46.78125 33.753906 46.6875 30.9375 C 46.625 30.132812 46.5625 29.328125 46.5 28.5 C 45.894531 28.761719 45.289062 29.023438 44.664062 29.292969 C 43.863281 29.636719 43.058594 29.976562 42.234375 30.328125 C 41.441406 30.667969 40.652344 31.007812 39.835938 31.355469 C 30.238281 35.03125 16.554688 34.355469 7.015625 30.804688 C 5.40625 30.070312 3.820312 29.3125 2.25 28.5 Z M 2.25 28.5 "/>
<path style=" stroke:none;fill-rule:nonzero;fill:rgb(0%,0%,0%);fill-opacity:1;" d="M 45 6 C 45.742188 6.246094 46.484375 6.496094 47.25 6.75 C 47.25 8.730469 47.25 10.710938 47.25 12.75 C 49.230469 12.75 51.210938 12.75 53.25 12.75 C 53.496094 13.492188 53.746094 14.234375 54 15 C 51.03125 15 48.058594 15 45 15 C 45 12.03125 45 9.058594 45 6 Z M 45 6 "/>
<path style=" stroke:none;fill-rule:nonzero;fill:rgb(0%,0%,0%);fill-opacity:1;" d="M 20.4375 7.453125 C 21.859375 7.464844 21.859375 7.464844 23.308594 7.472656 C 24.03125 7.480469 24.753906 7.492188 25.5 7.5 C 25.5 8.242188 25.5 8.984375 25.5 9.75 C 24.789062 9.71875 24.078125 9.6875 23.34375 9.65625 C 19.71875 9.640625 16.269531 10.457031 12.75 11.25 C 12.503906 10.261719 12.253906 9.269531 12 8.25 C 14.816406 7.347656 17.5 7.425781 20.4375 7.453125 Z M 20.4375 7.453125 "/>
<path style=" stroke:none;fill-rule:nonzero;fill:rgb(0%,0%,0%);fill-opacity:1;" d="M 32.25 38.25 C 33.238281 38.25 34.230469 38.25 35.25 38.25 C 35.25 39.488281 35.25 40.726562 35.25 42 C 34.261719 42 33.269531 42 32.25 42 C 32.25 40.761719 32.25 39.523438 32.25 38.25 Z M 32.25 38.25 "/>
<path style=" stroke:none;fill-rule:nonzero;fill:rgb(0%,0%,0%);fill-opacity:1;" d="M 23.25 39 C 23.992188 39 24.734375 39 25.5 39 C 25.5 40.484375 25.5 41.96875 25.5 43.5 C 24.757812 43.5 24.015625 43.5 23.25 43.5 C 23.25 42.015625 23.25 40.53125 23.25 39 Z M 23.25 39 "/>
<path style=" stroke:none;fill-rule:nonzero;fill:rgb(0%,0%,0%);fill-opacity:1;" d="M 27.75 39 C 28.492188 39 29.234375 39 30 39 C 30 40.484375 30 41.96875 30 43.5 C 29.257812 43.253906 28.515625 43.003906 27.75 42.75 C 27.75 41.511719 27.75 40.273438 27.75 39 Z M 27.75 39 "/>
<path style=" stroke:none;fill-rule:nonzero;fill:rgb(0%,0%,0%);fill-opacity:1;" d="M 37.5 37.5 C 38.242188 37.5 38.984375 37.5 39.75 37.5 C 39.75 38.738281 39.75 39.976562 39.75 41.25 C 39.007812 41.25 38.265625 41.25 37.5 41.25 C 37.5 40.011719 37.5 38.773438 37.5 37.5 Z M 37.5 37.5 "/>
</g>
</svg>

<svg xmlns="http://www.w3.org/2000/svg" width="60" height="60" viewBox="0 0 60 60"><path d="M53.625 1.219c4.05 3.851 6.484 6.636 6.656 12.375-.043 4.691-.785 7.726-4.031 11.156-2.27 1.77-4.031 2.844-6.75 3.75-.004.48-.008.96-.008 1.457a525 525 0 0 1-.133 6.559c-.007 1.132-.007 1.132-.011 2.289-.168 5.605-.168 5.605-2.278 8.496-1.933 1.351-3.613 2.324-5.82 3.136-.93.356-.93.356-1.875.715C29.207 54.395 14.934 54.11 5.25 49.5 2.71 48.137 1.625 47.438 0 45c-.207-1.527-.207-1.527-.23-3.293l-.036-2.012-.011-2.168-.024-2.23q-.012-2.343-.02-4.68a545 545 0 0 0-.081-7.148q-.011-2.274-.016-4.547l-.047-2.16c.024-3.457.067-5 2.25-7.805C3.675 7.555 5.297 6.625 7.5 5.812l1.875-.714c3.508-1.118 6.61-1.422 10.29-1.317.882.016 1.769.031 2.679.051q2.781.058 5.562.145c.883.011 1.77.027 2.68.039.805.02 1.61.043 2.437.062 2.762-.406 3.918-1.5 5.977-3.328 4.66-1.555 10.168-1.602 14.625.469M37.887 5.652A81 81 0 0 0 35.25 9h2.25c-.805 2.188-1.332 3.582-3 5.25-2.117-.164-3.383-.46-5.062-1.781C28.5 11.25 28.5 11.25 27.75 9c1.484.496 2.969.988 4.5 1.5.246-1.238.496-2.477.75-3.75-7.64-2.547-19.2-1.242-26.297 2.266-1.676 1.074-3.047 2.328-4.453 3.734-.105 1.855-.105 1.855.75 3.75 6.203 5.55 16.18 6.293 24.152 5.875C29.11 22.199 31.055 22 33 21.75v-3c.742-.246 1.484-.496 2.25-.75.254.836.254.836.516 1.688C37.14 22.57 39.172 24.086 42 25.5c4.21.469 8.043.457 11.645-1.953 2.859-2.707 3.945-5.899 4.48-9.719-.605-4.156-2.234-6.77-5.297-9.61-4.871-3.25-10.8-2.847-14.941 1.434M2.25 19.5c-.375 2.469-.375 2.469 0 5.25 4.105 4.633 9.781 5.941 15.75 6.75 7.672.406 15.152.313 22.5-2.25l1.5-1.5c-4.824-3.918-8.66-4.16-14.719-3.844-8.906.235-16.922-.351-25.031-4.406m0 9c-.293 2.973-.344 4.703 1.266 7.266 4.293 3.738 11.28 4.66 16.734 5.484v1.5c-6.43-.703-12.133-1.715-18-4.5-.375 2.469-.375 2.469 0 5.25 4.105 4.633 9.781 5.941 15.75 6.75 9.102.48 19.633.922 27-5.25 1.809-1.469 1.809-1.469 1.594-4.219L46.5 38.25c-1.484.496-2.969.988-4.5 1.5.824-1.922 1.48-2.984 3.094-4.36 1.687-1.636 1.687-1.636 1.593-4.453L46.5 28.5l-1.836.793c-.8.344-1.605.684-2.43 1.035-.793.34-1.582.68-2.398 1.027-9.598 3.676-23.281 3-32.82-.55A107 107 0 0 1 2.25 28.5m0 0"/><path d="M45 6c.742.246 1.484.496 2.25.75v6h6c.246.742.496 1.484.75 2.25h-9zM20.438 7.453c1.421.012 1.421.012 2.87.02.723.007 1.446.02 2.192.027v2.25l-2.156-.094c-3.625-.015-7.074.801-10.594 1.594l-.75-3c2.816-.902 5.5-.824 8.438-.797M32.25 38.25h3V42h-3zm-9 .75h2.25v4.5h-2.25zm4.5 0H30v4.5c-.742-.246-1.484-.496-2.25-.75zm9.75-1.5h2.25v3.75H37.5zm0 0"/></svg>
